lib/radiotmp/nrk-some-tommelned-expressive.svg

<svg width="24" height="24" viewBox="0 0 24 24" fill="none" xmlns="http://www.w3.org/2000/svg">
<path fill-rule="evenodd" clip-rule="evenodd" d="M1 17C1 17.5523 1.44772 18 2 18L3 18C4.65685 18 6 16.6569 6 15L6 4C6 2.34315 4.65686 1 3 1L2 1C1.44772 1 1 1.44772 1 2C1 2.55228 1.44772 3 2 3L3 3C3.55229 3 4 3.44772 4 4L4 15C4 15.5523 3.55229 16 3 16L2 16C1.44772 16 1 16.4477 1 17Z" fill="black"/>
<path fill-rule="evenodd" clip-rule="evenodd" d="M11 20C10.4477 20 10 19.5523 10 19L10 5.5C10 5.22386 10.2239 5 10.5 5L18.53 5C19.5229 5 20.3655 5.72849 20.509 6.71101L21.3851 12.711C21.5614 13.9178 20.6257 15 19.4061 15L13.5 15C12.6716 15 12 15.6716 12 16.5L12 19C12 19.5523 11.5523 20 11 20ZM8 19C8 20.6569 9.34315 22 11 22C12.6569 22 14 20.6569 14 19L14 17L19.4061 17C21.8453 17 23.7166 14.8356 23.3641 12.422L22.488 6.42202C22.201 4.45698 20.5158 3 18.53 3C17.2558 3 12.6802 3 9.99809 3C8.89352 3 8 3.89543 8 5L8 19Z" fill="black"/>
</svg>

<svg xmlns="http://www.w3.org/2000/svg" viewBox="0 0 24 24"><path fill="#000" fill-rule="evenodd" d="M1 17a1 1 0 0 0 1 1h1a3 3 0 0 0 3-3V4a3 3 0 0 0-3-3H2a1 1 0 0 0 0 2h1a1 1 0 0 1 1 1v11a1 1 0 0 1-1 1H2a1 1 0 0 0-1 1ZM11 20a1 1 0 0 1-1-1V5.5a.5.5 0 0 1 .5-.5h8.03a2 2 0 0 1 1.979 1.711l.876 6A2 2 0 0 1 19.406 15H13.5a1.5 1.5 0 0 0-1.5 1.5V19a1 1 0 0 1-1 1Zm-3-1a3 3 0 1 0 6 0v-2h5.406a4 4 0 0 0 3.958-4.578l-.876-6A4 4 0 0 0 18.53 3H9.998A1.998 1.998 0 0 0 8 5v14Z" clip-rule="evenodd"/></svg>
